!!!SOCIAL_FUNCTION:	songs of personal narratives concerning war
!!!PDT:	1918

Specific Region: Dakotas, Minnesota, Montana, Nebraska
!!!REG: Dakotas and Montana
!!!LING_GROUP: Siouan
!!!LANG: Tone
!!!OTL@ENG: A Spotted Horse
!!!ONM: No. 159
**kern
*Imale
*clefF4
*k[b-]
*M3/4
*MM96
4f
4f
16g
8.f
=1||
*M2/4
16c
8.c
12c
12A
12A
=2||
*M3/4
4f
4f
16g
8.f
=3||
*M2/4
16c
8.c
16c
8.A
=4||
*M3/4
4c
4.c
16f
16d
=5||
*M2/4
16c
8.c
12c
12A
12A
=6
8c
8c
12c
12A
12A
=7||
*M3/4
8A
8A
8G
8G
8G
8F
=8
4A
4A
8A
8A
=9||
*M2/4
8G
8G
8.F
16F
=10
4.F
8F
=11||
*M3/4
2.F
=12||
*M2/4
8A
8c
8c
8c
=13||
*M3/4
8c
8f
8c
8c
(12c
12A)
12A
=14
8c
8c
(16c
16A)
8A
8A
8A
=15||
*M2/4
8G
8G
(16G
16F)
8F
=16
4A
4A
=17
8r
8A
8G
8G
=18||
*M3/4
8F
8F
2F
=19
4F
2r
==
*-
!!!CNT: Native American -- Sioux
!!!MRD: 1911/07//-1914///
!!!OCL: Frances Densmore
!!!YOR1: Teton Sioux Music, Bulletin 61,
!!!YOR2: Bureau of American Ethnology, Smithsonian Institution
!!!PPR: Government Printing Office
!!!PPP: Washington, D.C.
!!!PDT: 1918///
!!!ENC: Craig Stuart Sapp
!!!END: 2002/03/25/
!!!EEV: 2002/03/31/
!!!AGN: War Song/Song of Personal Narrative Concerning War
!!!MPN@@SIO: Wi'yaka-wangzhi'la
!!!MPN@ENG: One Feather
!!!TXO: Teton Sioux
!!!MLC: Standing Rock Reservation, South Dakota, United States of America
!!!ARL: 45.9/-100.7#
!!!catalog: Catalogue No. 626
!!!PPG: 385
!!!EFL: 164/245
!!!VTS: 1123562896
